raw-svg/angle-double-right.svg

<svg viewBox="0 0 24 24" xmlns="http://www.w3.org/2000/svg"><path d="m13 16.25a.74.74 0 0 1 -.53-.22.75.75 0 0 1 0-1.06l3-3-3-3a.75.75 0 0 1 1.06-.97l3.5 3.5a.75.75 0 0 1 0 1.06l-3.5 3.44a.74.74 0 0 1 -.53.25z"/><path d="m7.5 16.25a.74.74 0 0 1 -.5-.25.75.75 0 0 1 0-1l3-3-3-3a.75.75 0 0 1 1-1l3.5 3.5a.75.75 0 0 1 0 1.06l-3.5 3.44a.74.74 0 0 1 -.5.25z"/></svg>

<svg xmlns="http://www.w3.org/2000/svg" viewBox="0 0 24 24"><g id="angle-double-right"><path d="M13,16.25a.74.74,0,0,1-.53-.22.75.75,0,0,1,0-1.06l3-3-3-3A.75.75,0,0,1,13.53,8l3.5,3.5a.75.75,0,0,1,0,1.06L13.53,16A.74.74,0,0,1,13,16.25Z"/><path d="M7.5,16.25A.74.74,0,0,1,7,16,.75.75,0,0,1,7,15l3-3L7,9A.75.75,0,0,1,8,8l3.5,3.5a.75.75,0,0,1,0,1.06L8,16A.74.74,0,0,1,7.5,16.25Z"/></g></svg>
